static/assets/images/networks/celo.svg

<svg xmlns="http://www.w3.org/2000/svg" fill="none" viewBox="0 0 512 512"><path fill="#FCFF52" d="M256 512c141.385 0 256-114.615 256-256S397.385 0 256 0 0 114.615 0 256s114.615 256 256 256"/><path fill="#000" d="M122.196 113h267.608c5.079 0 9.196 4.118 9.196 9.199v83.43c0 5.08-4.117 9.199-9.196 9.199h-31.439c-3.651 0-6.926-2.18-8.576-5.438-17.444-34.448-52.744-58.203-93.589-58.203-58.1 0-105.152 47.216-105.152 105.112 0 57.897 47.052 105.52 105.152 105.52 40.048 0 75.295-22.986 92.741-56.634 1.669-3.219 4.923-5.368 8.548-5.368h32.309c5.079 0 9.196 4.118 9.196 9.199v81.785c0 5.081-4.117 9.199-9.196 9.199H122.196c-5.079 0-9.196-4.118-9.196-9.199V122.199c0-5.081 4.117-9.199 9.196-9.199"/></svg>

<svg width="512" height="512" viewBox="0 0 512 512" fill="none" xmlns="http://www.w3.org/2000/svg">
<path d="M256 512C397.385 512 512 397.385 512 256C512 114.615 397.385 0 256 0C114.615 0 0 114.615 0 256C0 397.385 114.615 512 256 512Z" fill="#FCFF52"/>
<path d="M122.196 113H389.804C394.883 113 399 117.118 399 122.199V205.629C399 210.709 394.883 214.828 389.804 214.828H358.365C354.714 214.828 351.439 212.648 349.789 209.39C332.345 174.942 297.045 151.187 256.2 151.187C198.1 151.187 151.048 198.403 151.048 256.299C151.048 314.196 198.1 361.819 256.2 361.819C296.248 361.819 331.495 338.833 348.941 305.185C350.61 301.966 353.864 299.817 357.489 299.817H389.798C394.877 299.817 398.994 303.935 398.994 309.016V390.801C398.994 395.882 394.877 400 389.798 400H122.196C117.117 400 113 395.882 113 390.801V122.199C113 117.118 117.117 113 122.196 113Z" fill="black"/>
</svg>
